X: 1
T: Polska efter Anders Otter
S: efter Anders Otter
R: Polska
Z: Håkan Lidén, 2009-02-05
O: Orsa, Dalarna
N: "Skall vara från Orsa"
N: Finns på SMUS
M: 3/4
L: 1/8
K: G
D2 G>B A>>G | F(G A>)c B>A | G>B dc BA | G2 A4 :: {B}c2 AF D>C | 
B,C DG B2 | {B}c2 AF D>C | B,C DG B2 | {B}c2 e>d B>c | A2 G4 :|]

